Numix/16/status/indicator-keyboard-Sr-8.svg

<?xml version="1.0" encoding="UTF-8" standalone="no"?>
<svg
   xmlns:dc="http://purl.org/dc/elements/1.1/"
   xmlns:cc="http://creativecommons.org/ns#"
   xmlns:rdf="http://www.w3.org/1999/02/22-rdf-syntax-ns#"
   xmlns:svg="http://www.w3.org/2000/svg"
   xmlns="http://www.w3.org/2000/svg"
   xmlns:sodipodi="http://sodipodi.sourceforge.net/DTD/sodipodi-0.dtd"
   xmlns:inkscape="http://www.inkscape.org/namespaces/inkscape"
   viewBox="0 0 16 16"
   id="svg2"
   version="1.1"
   inkscape:version="0.91 r13725"
   sodipodi:docname="indicator-keyboard-Sr-8.svg">
  <metadata
     id="metadata14">
    <rdf:RDF>
      <cc:Work
         rdf:about="">
        <dc:format>image/svg+xml</dc:format>
        <dc:type
           rdf:resource="http://purl.org/dc/dcmitype/StillImage" />
      </cc:Work>
    </rdf:RDF>
  </metadata>
  <defs
     id="defs12" />
  <sodipodi:namedview
     pagecolor="#ffffff"
     bordercolor="#666666"
     borderopacity="1"
     objecttolerance="10"
     gridtolerance="10"
     guidetolerance="10"
     inkscape:pageopacity="0"
     inkscape:pageshadow="2"
     inkscape:window-width="640"
     inkscape:window-height="480"
     id="namedview10"
     showgrid="false"
     inkscape:zoom="14.75"
     inkscape:cx="8"
     inkscape:cy="8"
     inkscape:window-x="65"
     inkscape:window-y="24"
     inkscape:window-maximized="0"
     inkscape:current-layer="svg2" />
  <path
     style="fill:#ececec;fill-opacity:1"
     d="M 1.5996094 0 C 0.71320937 2.9605947e-16 0 0.71320937 0 1.5996094 L 0 14.400391 C 2.9605947e-16 15.286791 0.71320937 16 1.5996094 16 L 14.400391 16 C 15.286791 16 16 15.286791 16 14.400391 L 16 1.5996094 C 16 0.71320937 15.286791 0 14.400391 0 L 1.5996094 0 z M 4.8671875 4.7246094 C 5.0351875 4.7246094 5.1993281 4.7357656 5.3613281 4.7597656 C 5.5233281 4.7837656 5.6745 4.817375 5.8125 4.859375 C 5.9565 4.895375 6.0852188 4.936375 6.1992188 4.984375 C 6.3192187 5.032375 6.4180938 5.0846719 6.4960938 5.1386719 L 6.2792969 5.6503906 C 6.1052969 5.5303906 5.892625 5.4352813 5.640625 5.3632812 C 5.394625 5.2912813 5.1278437 5.2558594 4.8398438 5.2558594 C 4.6418437 5.2558594 4.4590156 5.2763594 4.2910156 5.3183594 C 4.1290156 5.3543594 3.9871875 5.4178125 3.8671875 5.5078125 C 3.7471875 5.5918125 3.6520781 5.6980781 3.5800781 5.8300781 C 3.5140781 5.9620781 3.4804687 6.1225938 3.4804688 6.3085938 C 3.4804688 6.5005938 3.5158906 6.6629219 3.5878906 6.7949219 C 3.6598906 6.9269219 3.7587656 7.0407187 3.8847656 7.1367188 C 4.0167656 7.2327187 4.16975 7.3184844 4.34375 7.3964844 C 4.51775 7.4744844 4.7081094 7.556625 4.9121094 7.640625 C 5.1581094 7.742625 5.3894687 7.8433125 5.6054688 7.9453125 C 5.8274688 8.0473125 6.0176875 8.1686406 6.1796875 8.3066406 C 6.3416875 8.4446406 6.4723594 8.6125469 6.5683594 8.8105469 C 6.6643594 9.0085469 6.7109375 9.2510625 6.7109375 9.5390625 C 6.7109375 10.103063 6.5131875 10.526594 6.1171875 10.808594 C 5.7271875 11.090594 5.1973906 11.230469 4.5253906 11.230469 C 4.2853906 11.230469 4.0651875 11.215547 3.8671875 11.185547 C 3.6691875 11.155547 3.4919375 11.120125 3.3359375 11.078125 C 3.1799375 11.030125 3.0494063 10.981594 2.9414062 10.933594 C 2.8334063 10.885594 2.7494531 10.844594 2.6894531 10.808594 L 2.8867188 10.277344 C 2.9467188 10.313344 3.0269062 10.354344 3.1289062 10.402344 C 3.2309062 10.450344 3.3522344 10.498875 3.4902344 10.546875 C 3.6282344 10.588875 3.7830313 10.624297 3.9570312 10.654297 C 4.1310312 10.684297 4.3232031 10.699219 4.5332031 10.699219 C 5.0192031 10.699219 5.3979687 10.613453 5.6679688 10.439453 C 5.9379688 10.259453 6.0722656 9.970219 6.0722656 9.5742188 C 6.0722656 9.3462187 6.0275 9.1578125 5.9375 9.0078125 C 5.8535 8.8518125 5.7397031 8.7230938 5.5957031 8.6210938 C 5.4517031 8.5130937 5.2856094 8.4235625 5.0996094 8.3515625 C 4.9136094 8.2735625 4.719625 8.1914219 4.515625 8.1074219 C 4.257625 8.0054219 4.0262656 7.9009687 3.8222656 7.7929688 C 3.6182656 7.6849688 3.4447812 7.5655937 3.3007812 7.4335938 C 3.1567812 7.2955937 3.0447969 7.1388438 2.9667969 6.9648438 C 2.8947969 6.7908437 2.859375 6.5875156 2.859375 6.3535156 C 2.859375 5.8195156 3.036625 5.4146719 3.390625 5.1386719 C 3.744625 4.8626719 4.2371875 4.7246094 4.8671875 4.7246094 z M 9.3984375 6.3535156 C 9.5904375 6.3535156 9.7714531 6.3684375 9.9394531 6.3984375 C 10.113453 6.4284375 10.232828 6.4582812 10.298828 6.4882812 L 10.181641 6.9921875 C 10.133641 6.9681875 10.034766 6.9439219 9.8847656 6.9199219 C 9.7407656 6.8899219 9.5485938 6.875 9.3085938 6.875 C 9.0565937 6.875 8.8532656 6.8936875 8.6972656 6.9296875 C 8.5472656 6.9656875 8.4483906 6.9955312 8.4003906 7.0195312 L 8.4003906 11.095703 L 7.8144531 11.095703 L 7.8144531 6.6582031 C 7.9644531 6.5922031 8.1715469 6.5269375 8.4355469 6.4609375 C 8.6995469 6.3889375 9.0204375 6.3535156 9.3984375 6.3535156 z M 12.048828 8.7539062 C 12.251628 8.7539062 12.426019 8.7852563 12.574219 8.8476562 C 12.722419 8.9061562 12.8439 8.9845313 12.9375 9.0820312 C 13.035 9.1795312 13.105538 9.2912156 13.148438 9.4160156 C 13.195237 9.5408156 13.21875 9.6681812 13.21875 9.8007812 C 13.21875 9.9294812 13.199156 10.049003 13.160156 10.158203 C 13.121156 10.263503 13.070212 10.361472 13.007812 10.451172 C 12.945412 10.536972 12.874875 10.613388 12.796875 10.679688 C 12.718875 10.745988 12.642459 10.800856 12.568359 10.847656 C 12.841359 10.964656 13.033378 11.111609 13.142578 11.287109 C 13.255678 11.462609 13.310547 11.64875 13.310547 11.84375 C 13.310547 12.01145 13.28115 12.164288 13.21875 12.304688 C 13.16025 12.445088 13.075997 12.566569 12.966797 12.667969 C 12.857597 12.765469 12.724359 12.841884 12.568359 12.896484 C 12.412359 12.954984 12.239928 12.984375 12.048828 12.984375 C 11.857728 12.984375 11.683344 12.956944 11.527344 12.902344 C 11.375244 12.847744 11.242006 12.771328 11.128906 12.673828 C 11.019706 12.572428 10.933494 12.454866 10.871094 12.322266 C 10.812594 12.185766 10.785156 12.038806 10.785156 11.878906 C 10.785156 11.742406 10.802797 11.618966 10.841797 11.509766 C 10.880797 11.396666 10.931741 11.296737 10.994141 11.210938 C 11.060441 11.121237 11.134897 11.042863 11.216797 10.976562 C 11.302597 10.906363 11.392728 10.845622 11.486328 10.794922 C 11.248428 10.677922 11.0858 10.540759 11 10.380859 C 10.9142 10.220959 10.871094 10.046575 10.871094 9.859375 C 10.871094 9.691675 10.900484 9.5407968 10.958984 9.4042969 C 11.017484 9.2677969 11.097819 9.1521937 11.199219 9.0585938 C 11.304519 8.9610938 11.429919 8.8866375 11.574219 8.8359375 C 11.718519 8.7813375 11.877228 8.7539062 12.048828 8.7539062 z M 12.048828 9.0820312 C 11.920128 9.0820312 11.806484 9.101625 11.708984 9.140625 C 11.611484 9.179625 11.529191 9.2344875 11.462891 9.3046875 C 11.400491 9.3709875 11.351506 9.4493625 11.316406 9.5390625 C 11.285206 9.6287624 11.269531 9.7208594 11.269531 9.8183594 C 11.269531 9.9275594 11.281287 10.027487 11.304688 10.117188 C 11.331988 10.206888 11.380972 10.289181 11.451172 10.363281 C 11.521372 10.433481 11.619341 10.5001 11.744141 10.5625 C 11.868941 10.621 12.031575 10.677822 12.234375 10.732422 C 12.413775 10.631022 12.556809 10.505622 12.662109 10.357422 C 12.767409 10.209222 12.820312 10.023081 12.820312 9.8007812 C 12.820312 9.7110812 12.804638 9.6248624 12.773438 9.5390625 C 12.746138 9.4532625 12.701072 9.3768469 12.638672 9.3105469 C 12.580172 9.2403469 12.501797 9.1854844 12.404297 9.1464844 C 12.306797 9.1035844 12.189228 9.0820312 12.048828 9.0820312 z M 11.814453 10.929688 C 11.615553 11.023287 11.460763 11.150647 11.351562 11.310547 C 11.242363 11.466547 11.1875 11.656606 11.1875 11.878906 C 11.1875 11.988106 11.205134 12.088041 11.240234 12.181641 C 11.275334 12.275241 11.328238 12.357534 11.398438 12.427734 C 11.472537 12.497934 11.562669 12.554756 11.667969 12.597656 C 11.777169 12.636656 11.904528 12.65625 12.048828 12.65625 C 12.193128 12.65625 12.316575 12.636656 12.421875 12.597656 C 12.531075 12.554756 12.621206 12.497934 12.691406 12.427734 C 12.765506 12.357534 12.820369 12.275241 12.855469 12.181641 C 12.890569 12.088041 12.908203 11.988106 12.908203 11.878906 C 12.908203 11.711206 12.874894 11.57405 12.808594 11.46875 C 12.746194 11.36345 12.661941 11.277238 12.556641 11.210938 C 12.455241 11.144638 12.337678 11.091734 12.205078 11.052734 C 12.076378 11.013734 11.947053 10.972587 11.814453 10.929688 z "
     id="path4" />
</svg>

<svg xmlns="http://www.w3.org/2000/svg" viewBox="0 0 16 16">
 <path d="m 1.6 0 c -0.886 0 -1.6 0.713 -1.6 1.6 l 0 12.801 c 0 0.886 0.713 1.6 1.6 1.6 l 12.801 0 c 0.886 0 1.6 -0.713 1.6 -1.6 l 0 -12.801 c 0 -0.886 -0.713 -1.6 -1.6 -1.6 l -12.801 0 z m 3.268 4.725 c 0.168 0 0.332 0.011 0.494 0.035 c 0.162 0.024 0.313 0.058 0.451 0.1 c 0.144 0.036 0.273 0.077 0.387 0.125 c 0.12 0.048 0.219 0.1 0.297 0.154 l -0.217 0.512 c -0.174 -0.12 -0.387 -0.215 -0.639 -0.287 c -0.246 -0.072 -0.513 -0.107 -0.801 -0.107 c -0.198 0 -0.381 0.02 -0.549 0.063 c -0.162 0.036 -0.304 0.099 -0.424 0.189 c -0.12 0.084 -0.215 0.19 -0.287 0.322 c -0.066 0.132 -0.1 0.293 -0.1 0.479 c 0 0.192 0.035 0.354 0.107 0.486 c 0.072 0.132 0.171 0.246 0.297 0.342 c 0.132 0.096 0.285 0.182 0.459 0.26 c 0.174 0.078 0.364 0.16 0.568 0.244 c 0.246 0.102 0.477 0.203 0.693 0.305 c 0.222 0.102 0.412 0.223 0.574 0.361 c 0.162 0.138 0.293 0.306 0.389 0.504 c 0.096 0.198 0.143 0.441 0.143 0.729 c 0 0.564 -0.198 0.988 -0.594 1.27 c -0.39 0.282 -0.92 0.422 -1.592 0.422 c -0.24 0 -0.46 -0.015 -0.658 -0.045 c -0.198 -0.03 -0.375 -0.065 -0.531 -0.107 c -0.156 -0.048 -0.287 -0.097 -0.395 -0.145 c -0.108 -0.048 -0.192 -0.089 -0.252 -0.125 l 0.197 -0.531 c 0.06 0.036 0.14 0.077 0.242 0.125 c 0.102 0.048 0.223 0.097 0.361 0.145 c 0.138 0.042 0.293 0.077 0.467 0.107 c 0.174 0.03 0.366 0.045 0.576 0.045 c 0.486 0 0.865 -0.086 1.135 -0.26 c 0.27 -0.18 0.404 -0.469 0.404 -0.865 c 0 -0.228 -0.045 -0.416 -0.135 -0.566 c -0.084 -0.156 -0.198 -0.285 -0.342 -0.387 c -0.144 -0.108 -0.31 -0.198 -0.496 -0.27 c -0.186 -0.078 -0.38 -0.16 -0.584 -0.244 c -0.258 -0.102 -0.489 -0.206 -0.693 -0.314 c -0.204 -0.108 -0.377 -0.227 -0.521 -0.359 c -0.144 -0.138 -0.256 -0.295 -0.334 -0.469 c -0.072 -0.174 -0.107 -0.377 -0.107 -0.611 c 0 -0.534 0.177 -0.939 0.531 -1.215 c 0.354 -0.276 0.847 -0.414 1.477 -0.414 z m 4.531 1.629 c 0.192 0 0.373 0.015 0.541 0.045 c 0.174 0.03 0.293 0.06 0.359 0.09 l -0.117 0.504 c -0.048 -0.024 -0.147 -0.048 -0.297 -0.072 c -0.144 -0.03 -0.336 -0.045 -0.576 -0.045 c -0.252 0 -0.455 0.019 -0.611 0.055 c -0.15 0.036 -0.249 0.066 -0.297 0.09 l 0 4.076 l -0.586 0 l 0 -4.437 c 0.15 -0.066 0.357 -0.131 0.621 -0.197 c 0.264 -0.072 0.585 -0.107 0.963 -0.107 z m 2.65 2.4 c 0.203 0 0.377 0.031 0.525 0.094 c 0.148 0.059 0.27 0.137 0.363 0.234 c 0.098 0.098 0.168 0.209 0.211 0.334 c 0.047 0.125 0.07 0.252 0.07 0.385 c 0 0.129 -0.02 0.248 -0.059 0.357 c -0.039 0.105 -0.09 0.203 -0.152 0.293 c -0.062 0.086 -0.133 0.162 -0.211 0.229 c -0.078 0.066 -0.154 0.121 -0.229 0.168 c 0.273 0.117 0.465 0.264 0.574 0.439 c 0.113 0.176 0.168 0.362 0.168 0.557 c 0 0.168 -0.029 0.321 -0.092 0.461 c -0.059 0.14 -0.143 0.262 -0.252 0.363 c -0.109 0.098 -0.242 0.174 -0.398 0.229 c -0.156 0.059 -0.328 0.088 -0.52 0.088 c -0.191 0 -0.365 -0.027 -0.521 -0.082 c -0.152 -0.055 -0.285 -0.131 -0.398 -0.229 c -0.109 -0.101 -0.195 -0.219 -0.258 -0.352 c -0.058 -0.137 -0.086 -0.283 -0.086 -0.443 c 0 -0.136 0.018 -0.26 0.057 -0.369 c 0.039 -0.113 0.09 -0.213 0.152 -0.299 c 0.066 -0.09 0.141 -0.168 0.223 -0.234 c 0.086 -0.07 0.176 -0.131 0.27 -0.182 c -0.238 -0.117 -0.401 -0.254 -0.486 -0.414 c -0.086 -0.16 -0.129 -0.334 -0.129 -0.521 c 0 -0.168 0.029 -0.319 0.088 -0.455 c 0.059 -0.136 0.139 -0.252 0.24 -0.346 c 0.105 -0.098 0.231 -0.172 0.375 -0.223 c 0.144 -0.055 0.303 -0.082 0.475 -0.082 z m 0 0.328 c -0.129 0 -0.242 0.02 -0.34 0.059 c -0.097 0.039 -0.18 0.094 -0.246 0.164 c -0.062 0.066 -0.111 0.145 -0.146 0.234 c -0.031 0.09 -0.047 0.182 -0.047 0.279 c 0 0.109 0.012 0.209 0.035 0.299 c 0.027 0.09 0.076 0.172 0.146 0.246 c 0.07 0.07 0.168 0.137 0.293 0.199 c 0.125 0.059 0.287 0.115 0.49 0.17 c 0.179 -0.101 0.322 -0.227 0.428 -0.375 c 0.105 -0.148 0.158 -0.334 0.158 -0.557 c 0 -0.09 -0.016 -0.176 -0.047 -0.262 c -0.027 -0.086 -0.072 -0.162 -0.135 -0.229 c -0.059 -0.07 -0.137 -0.125 -0.234 -0.164 c -0.098 -0.043 -0.215 -0.064 -0.355 -0.064 z m -0.234 1.848 c -0.199 0.094 -0.354 0.221 -0.463 0.381 c -0.109 0.156 -0.164 0.346 -0.164 0.568 c 0 0.109 0.018 0.209 0.053 0.303 c 0.035 0.094 0.088 0.176 0.158 0.246 c 0.074 0.07 0.164 0.127 0.27 0.17 c 0.109 0.039 0.237 0.059 0.381 0.059 c 0.144 0 0.268 -0.02 0.373 -0.059 c 0.109 -0.043 0.199 -0.1 0.27 -0.17 c 0.074 -0.07 0.129 -0.152 0.164 -0.246 c 0.035 -0.094 0.053 -0.194 0.053 -0.303 c 0 -0.168 -0.033 -0.305 -0.1 -0.41 c -0.062 -0.105 -0.147 -0.192 -0.252 -0.258 c -0.101 -0.066 -0.219 -0.119 -0.352 -0.158 c -0.129 -0.039 -0.258 -0.08 -0.391 -0.123 z" style="fill:#ececec;fill-opacity:1"/>
</svg>
